src/amo/components/CategoryIcon/img/solid.svg

<svg xmlns="http://www.w3.org/2000/svg" width="64" height="64" viewBox="0 0 64 64">
  <g class="two" fill="#0F1126">
    <path d="M2.46153846,0 L61.5384615,0 C62.8979317,0 64,1.10206831 64,2.46153846 L64,61.5384615 C64,62.8979317 62.8979317,64 61.5384615,64 L2.46153846,64 C1.10206831,64 0,62.8979317 0,61.5384615 L0,2.46153846 C0,1.10206831 1.10206831,0 2.46153846,0 Z M4.92307692,59.0769231 L59.0769231,59.0769231 L59.0769231,4.92307692 L4.92307692,4.92307692 L4.92307692,59.0769231 Z"/>
  </g>
  <g class="one" fill="#0F1126">
    <path d="M19.6923077,41.8461538 L19.6923077,34.9090909 C19.6923077,34.2293558 19.1412735,33.6783217 18.4615385,33.6783217 C17.7818034,33.6783217 17.2307692,34.2293558 17.2307692,34.9090909 L17.2307692,41.8461538 L10.5174825,41.8461538 C9.83774744,41.8461538 9.28671329,42.397188 9.28671329,43.0769231 C9.28671329,43.7566582 9.83774744,44.3076923 10.5174825,44.3076923 L17.2307692,44.3076923 L17.2307692,51.020979 C17.2307692,51.7007141 17.7818034,52.2517483 18.4615385,52.2517483 C19.1412735,52.2517483 19.6923077,51.7007141 19.6923077,51.020979 L19.6923077,44.3076923 L26.6293706,44.3076923 C27.3091057,44.3076923 27.8601399,43.7566582 27.8601399,43.0769231 C27.8601399,42.397188 27.3091057,41.8461538 26.6293706,41.8461538 L19.6923077,41.8461538 Z M18.5734266,27.8601399 C13.4445164,27.8601399 9.28671329,23.7023367 9.28671329,18.5734266 C9.28671329,13.4445164 13.4445164,9.28671329 18.5734266,9.28671329 C23.7023367,9.28671329 27.8601399,13.4445164 27.8601399,18.5734266 C27.8601399,23.7023367 23.7023367,27.8601399 18.5734266,27.8601399 Z M18.5734266,25.3986014 C22.3428665,25.3986014 25.3986014,22.3428665 25.3986014,18.5734266 C25.3986014,14.8039866 22.3428665,11.7482517 18.5734266,11.7482517 C14.8039866,11.7482517 11.7482517,14.8039866 11.7482517,18.5734266 C11.7482517,22.3428665 14.8039866,25.3986014 18.5734266,25.3986014 Z M37.3706294,9.28671329 L53.4825175,9.28671329 C54.1622526,9.28671329 54.7132867,9.83774744 54.7132867,10.5174825 L54.7132867,26.6293706 C54.7132867,27.3091057 54.1622526,27.8601399 53.4825175,27.8601399 L37.3706294,27.8601399 C36.6908943,27.8601399 36.1398601,27.3091057 36.1398601,26.6293706 L36.1398601,10.5174825 C36.1398601,9.83774744 36.6908943,9.28671329 37.3706294,9.28671329 Z M38.6013986,25.3986014 L52.2517483,25.3986014 L52.2517483,11.7482517 L38.6013986,11.7482517 L38.6013986,25.3986014 Z M53.4825175,52.2517483 L37.3706294,52.2517483 C36.4139592,52.2517483 35.8230507,51.2080913 36.3152535,50.3877535 L44.3711975,36.96118 C44.8492325,36.1644551 46.0039144,36.1644551 46.4819493,36.96118 L54.5378934,50.3877535 C55.0300961,51.2080913 54.4391876,52.2517483 53.4825175,52.2517483 Z M45.4265734,39.986591 L39.5444021,49.7902098 L51.3087447,49.7902098 L45.4265734,39.986591 Z"/>
  </g>
</svg>

<svg xmlns="http://www.w3.org/2000/svg" width="64" height="64"><path d="M2.462 0h59.076A2.462 2.462 0 0 1 64 2.462v59.076A2.462 2.462 0 0 1 61.538 64H2.462A2.462 2.462 0 0 1 0 61.538V2.462A2.462 2.462 0 0 1 2.462 0Zm2.461 59.077h54.154V4.923H4.923v54.154Z" class="two" fill="#0F1126"/><path d="M19.692 41.846V34.91a1.23 1.23 0 0 0-2.461 0v6.937h-6.714a1.23 1.23 0 0 0 0 2.462h6.714v6.713a1.23 1.23 0 0 0 2.461 0v-6.713h6.937a1.23 1.23 0 1 0 0-2.462h-6.937ZM18.573 27.86a9.287 9.287 0 1 1 0-18.573 9.287 9.287 0 0 1 0 18.573Zm0-2.461a6.825 6.825 0 1 0 0-13.65 6.825 6.825 0 0 0 0 13.65ZM37.371 9.287h16.112c.68 0 1.23.55 1.23 1.23V26.63c0 .68-.55 1.231-1.23 1.231H37.37a1.23 1.23 0 0 1-1.231-1.23V10.516c0-.68.55-1.23 1.23-1.23Zm1.23 16.112h13.65v-13.65h-13.65v13.65Zm14.882 26.853H37.37a1.23 1.23 0 0 1-1.056-1.864l8.056-13.427a1.23 1.23 0 0 1 2.11 0l8.057 13.427a1.23 1.23 0 0 1-1.055 1.864Zm-8.056-12.265-5.883 9.803H51.31l-5.882-9.803Z" class="one" fill="#0F1126"/></svg>
